X:1
T:FOLLOW THE BAND
M:3/4
L:1/4
K:C
 g| g e3/2 e/2| e c c| c B A| G E G| c c c| c d e| d3-| d z g| g e e|\
 e c c| c B A| G3/2 z/2 G| A d c| B A B| c3-| c z g| g e/2e/2 e| e/2e/2c/2 c/2 c|\
 c e3/2 c/2| G3| G B c| d3| c d _e| =e3| g e/2e/2 e| e/2c/2c/2 c/2 c|\
 c e3/2 c/2| G3| B A G| f e d| c3-| c z||
